X: 41036
T: Trip To Leeville, The
R: reel
M: 4/4
K: Gmajor
ge|:dGBG AGFG|DGBG AGFG|DGBG EAcB|AGFE D2ge|
d~G3 AGFG|D~G3 AGFG|DGBG EAcB|1 ADFA G2 ge:|2 ADFA G2 dc||
|:BABc d2ef|gfga gedc|B~G3 BcdB|A~=F3 ABcA|
BAGA Bcdf|gfaf gedB|DGBG EAcB|ADFA G2dc:|

